X: 15480
T: Glenda's
R: reel
M: 4/4
K: Gminor
FA|BdcA BFDF|B2AB fBAB|GBeB FBdB|cfeg fcAc|
BdcA BFDF|B2AB fBAB|GBFB EBDB|ABcA B2:|
K:F
|:AB|cfef afge|fdcA FAcA|BAGA Bcde|fdcA G2AB|
cfef afge|fdcA FAcA|BAGA Bcdf|efge f2||

